icons/apostrophe.svg

<?xml version="1.0" encoding="UTF-8"?>
<svg width="256px" height="259px" viewBox="0 0 256 259" version="1.1" xmlns="http://www.w3.org/2000/svg" xmlns:xlink="http://www.w3.org/1999/xlink" preserveAspectRatio="xMidYMid">
    <defs>
        <linearGradient x1="77.3888889%" y1="-5.28571429%" x2="14.7642857%" y2="120.915079%" id="linearGradient-1">
            <stop stop-color="#CC9300" offset="0%"></stop>
            <stop stop-color="#EA433A" offset="48%"></stop>
            <stop stop-color="#B327BF" offset="100%"></stop>
        </linearGradient>
        <linearGradient x1="100.370954%" y1="-50.1128609%" x2="16.7104112%" y2="64.2169729%" id="linearGradient-2">
            <stop stop-color="#CC9300" offset="0%"></stop>
            <stop stop-color="#EA433A" offset="26%"></stop>
            <stop stop-color="#B327BF" offset="48%"></stop>
            <stop stop-color="#6666FF" offset="76%"></stop>
            <stop stop-color="#00BF9A" offset="100%"></stop>
        </linearGradient>
        <linearGradient x1="7.17664234%" y1="104.165263%" x2="96.9007299%" y2="11.678316%" id="linearGradient-3">
            <stop stop-color="#B327BF" offset="0%"></stop>
            <stop stop-color="#6666FF" offset="48%"></stop>
            <stop stop-color="#00C09A" offset="100%"></stop>
        </linearGradient>
    </defs>
		<g>
				<path d="M122.798368,254.853912 C89.6210187,260.30094 76.7462266,258.320202 63.3762501,253.863543 C50.209209,249.399211 38.7770908,240.911729 30.6940854,229.599512 L29.2085325,228.113959 C21.7807678,217.715089 16.3337403,205.830665 11.3818972,175.129238 L3.45894816,123.630069 C-1.98807929,89.9575356 -0.502526348,77.0827435 4.44931679,63.712767 C9.06852878,50.6248664 17.3115838,39.1189355 28.2181638,30.535418 L30.1989011,29.049865 C40.5977717,21.6221003 52.4821952,16.1750729 82.6884384,11.2232298 L133.197238,3.30028073 C166.374587,-2.14674672 179.24938,-0.166009463 192.619356,4.29064936 C205.786397,8.75498175 217.218515,17.2424634 225.301521,28.5546807 L226.787074,30.535418 C234.214838,40.9342886 239.661866,52.8187121 244.613709,83.5201396 L252.536658,134.524124 C257.983685,168.196657 256.498132,181.071449 251.546289,194.441426 C247.088343,207.612718 238.814854,219.16113 227.777442,227.618775 L225.796705,229.104328 C215.397834,236.532092 203.513411,241.97912 173.307168,246.930963 L122.798368,254.853912 Z" fill="#000000"></path>
				<path d="M179.298898,94.8598603 C158.760344,94.8598603 142.110556,111.509648 142.110556,132.048202 C142.110556,152.586756 158.760344,169.236544 179.298898,169.236544 C199.837452,169.236544 216.48724,152.586756 216.48724,132.048202 C216.48724,111.509648 199.837452,94.8598603 179.298898,94.8598603 Z M179.298898,106.843321 C193.21917,106.843321 204.50378,118.127931 204.50378,132.048202 C204.50378,145.968474 193.21917,157.253084 179.298898,157.253084 C165.378626,157.253084 154.094016,145.968474 154.094016,132.048202 C154.094016,118.127931 165.378626,106.843321 179.298898,106.843321 Z" fill="url(#linearGradient-1)"></path>
				<path d="M115.514619,52.0615631 L58.9150516,52.0615631 C55.5922363,52.0615631 52.8985622,54.7552372 52.8985622,58.0780526 L52.8985622,114.67762 C52.8985622,118.000435 55.5922363,120.694109 58.9150516,120.694109 L115.514619,120.694109 C118.837434,120.694109 121.531108,118.000435 121.531108,114.67762 L121.531108,58.0780526 C121.531108,54.7552372 118.837434,52.0615631 115.514619,52.0615631 Z M109.497717,64.0940589 L109.497717,108.660647 L64.9311289,108.660647 L64.9311289,64.0940589 L109.497717,64.0940589 Z" fill="url(#linearGradient-2)" transform="translate(87.214835, 86.377836) rotate(-9.180000) translate(-87.214835, -86.377836) "></path>
				<path d="M99.3215888,144.909563 L75.5527418,212.25463 C74.0397801,216.541355 77.664509,220.885498 82.1528901,220.164736 L149.993141,209.270681 C154.494899,208.547771 156.571786,203.261478 153.766022,199.667579 L109.694618,143.216567 C106.781938,139.485718 100.896884,140.446226 99.3215888,144.909563 Z M106.982181,159.214014 L138.079756,199.04664 L90.2102881,206.7319 L106.982181,159.214014 Z" fill="url(#linearGradient-3)"></path>
		</g>
</svg>

<svg xmlns="http://www.w3.org/2000/svg" viewBox="0 0 255.996 258.154">
  <defs>
    <linearGradient id="a" x1="199.67" x2="153.092" y1="90.929" y2="184.792" gradientUnits="userSpaceOnUse">
      <stop offset="0%" stop-color="#CC9300"/>
      <stop offset="48%" stop-color="#EA433A"/>
      <stop offset="100%" stop-color="#B327BF"/>
    </linearGradient>
    <linearGradient id="b" x1="121.786" x2="64.367" y1="17.668" y2="96.135" gradientUnits="userSpaceOnUse">
      <stop offset="0%" stop-color="#CC9300"/>
      <stop offset="26%" stop-color="#EA433A"/>
      <stop offset="48%" stop-color="#B327BF"/>
      <stop offset="76%" stop-color="#66F"/>
      <stop offset="100%" stop-color="#00BF9A"/>
    </linearGradient>
    <linearGradient id="c" x1="80.677" x2="152.084" y1="224.257" y2="150.652" gradientTransform="scale(1.00317 .99684)" gradientUnits="userSpaceOnUse">
      <stop offset="0%" stop-color="#B327BF"/>
      <stop offset="48%" stop-color="#66F"/>
      <stop offset="100%" stop-color="#00C09A"/>
    </linearGradient>
  </defs>
  <path d="M122.798 254.854c-33.177 5.447-46.052 3.466-59.422-.99A66.355 66.355 0 0 1 30.694 229.6l-1.485-1.486c-7.428-10.399-12.875-22.283-17.827-52.985L3.459 123.63c-5.447-33.672-3.962-46.547.99-59.917a73.238 73.238 0 0 1 23.77-33.178l1.98-1.485c10.399-7.428 22.283-12.875 52.49-17.827L133.196 3.3c33.178-5.447 46.052-3.466 59.422.99a66.355 66.355 0 0 1 32.683 24.265l1.485 1.98c7.428 10.4 12.875 22.284 17.827 52.985l7.923 51.004c5.447 33.673 3.961 46.547-.99 59.917a70.118 70.118 0 0 1-23.77 33.178l-1.98 1.485c-10.4 7.428-22.284 12.875-52.49 17.827z"/>
  <path fill="url(#a)" d="M179.299 94.86c-20.539 0-37.188 16.65-37.188 37.188 0 20.539 16.65 37.189 37.188 37.189 20.538 0 37.188-16.65 37.188-37.189 0-20.538-16.65-37.188-37.188-37.188zm0 11.983c13.92 0 25.205 11.285 25.205 25.205 0 13.92-11.285 25.205-25.205 25.205-13.92 0-25.205-11.285-25.205-25.205 0-13.92 11.285-25.205 25.205-25.205z" style="fill:url(#a)"/>
  <path fill="url(#b)" d="M115.515 52.062h-56.6a6.016 6.016 0 0 0-6.016 6.016v56.6a6.016 6.016 0 0 0 6.016 6.016h56.6a6.016 6.016 0 0 0 6.016-6.016v-56.6a6.016 6.016 0 0 0-6.016-6.016zm-6.017 12.032v44.567H64.93V64.094z" style="fill:url(#b)" transform="rotate(-9.18 87.215 86.378)"/>
  <path fill="url(#c)" d="m99.322 144.91-23.77 67.345c-1.512 4.286 2.113 8.63 6.6 7.91l67.841-10.894c4.502-.723 6.579-6.01 3.773-9.603l-44.071-56.451c-2.913-3.731-8.798-2.77-10.373 1.693zm7.66 14.304 31.098 39.833-47.87 7.685z" style="fill:url(#c)"/>
</svg>
